X:6856
T:the Gretna Green Tobacconist
O:england
M:C|
A:North-West
R:Reel
K:Bb
Bbge fdec| dBcB AGFE| DFBD EGcd| ecdB BAGF|\
Bbge fdec| dBcB AGFE| DFBD EGcd| ecBA B2B2::\
B,DCE DFEG| FBcd BAGF| Bdce dfeg| fdcB BAGF|\
Bbge dbcd| BdcB AGFE| DFBD EGcd| ecBA B2B2:|


